svgs/sharp-light/car-side.svg

<svg xmlns="http://www.w3.org/2000/svg" viewBox="0 0 640 512"><!--! Font Awesome Pro 6.6.0 by @fontawesome - https://fontawesome.com License - https://fontawesome.com/license (Commercial License) Copyright 2024 Fonticons, Inc. --><path d="M117.2 32L128 32l256 0 7.7 0 4.8 6L519.7 192l88.3 0 32 0 0 32 0 144 0 32-32 0-33.3 0c-7.6 45.4-47.1 80-94.7 80s-87.1-34.6-94.7-80l-130.7 0c-7.6 45.4-47.1 80-94.7 80s-87.1-34.6-94.7-80L32 400 0 400l0-32L0 224l0-32 32 0 21.2 0 60-149.9 4-10.1zM418 368c-1.3 5.1-2 10.5-2 16s.7 10.9 2 16c7.1 27.6 32.2 48 62 48s54.9-20.4 62-48c1.3-5.1 2-10.5 2-16s-.7-10.9-2-16c-7.1-27.6-32.2-48-62-48s-54.9 20.4-62 48zm156.7 0l33.3 0 0-144L32 224l0 144 33.3 0c7.6-45.4 47.1-80 94.7-80s87.1 34.6 94.7 80l130.7 0c7.6-45.4 47.1-80 94.7-80s87.1 34.6 94.7 80zM96 384c0 5.5 .7 10.9 2 16c7.1 27.6 32.2 48 62 48s54.9-20.4 62-48c1.3-5.1 2-10.5 2-16s-.7-10.9-2-16c-7.1-27.6-32.2-48-62-48s-54.9 20.4-62 48c-1.3 5.1-2 10.5-2 16zM87.6 192L224 192l0-16 0-96 0-16-85.2 0L87.6 192zM256 192l222.7 0L376.3 64 256 64l0 16 0 96 0 16z"/></svg>

<svg xmlns="http://www.w3.org/2000/svg" viewBox="0 0 640 512"><!--! Font Awesome Pro 6.4.2 by @fontawesome - https://fontawesome.com License - https://fontawesome.com/license (Commercial License) Copyright 2023 Fonticons, Inc. --><path d="M117.2 32H128 384h7.7l4.8 6L519.7 192H608h32v32V368v32H608 574.7c-7.6 45.4-47.1 80-94.7 80s-87.1-34.6-94.7-80H254.7c-7.6 45.4-47.1 80-94.7 80s-87.1-34.6-94.7-80H32 0V368 224 192H32 53.2l60-149.9 4-10.1zM418 368c-1.3 5.1-2 10.5-2 16s.7 10.9 2 16c7.1 27.6 32.2 48 62 48s54.9-20.4 62-48c1.3-5.1 2-10.5 2-16s-.7-10.9-2-16c-7.1-27.6-32.2-48-62-48s-54.9 20.4-62 48zm156.7 0H608V224H32V368H65.3c7.6-45.4 47.1-80 94.7-80s87.1 34.6 94.7 80H385.3c7.6-45.4 47.1-80 94.7-80s87.1 34.6 94.7 80zM96 384c0 5.5 .7 10.9 2 16c7.1 27.6 32.2 48 62 48s54.9-20.4 62-48c1.3-5.1 2-10.5 2-16s-.7-10.9-2-16c-7.1-27.6-32.2-48-62-48s-54.9 20.4-62 48c-1.3 5.1-2 10.5-2 16zM87.6 192H224V176 80 64H138.8L87.6 192zM256 192H478.7L376.3 64H256V80v96 16z"/></svg>
